X: 17172
T: Henchey's Delight
R: jig
M: 6/8
K: Gmajor
|:A|BAB GAG|FDE F2G|AGA g/f/ed|cAG FGA|
BDD ADD|FDE F2G|AGA g/f/ed|cAF G2:|
|:d|g3 afd|gfg a2f|gfg b2g|a2g fga|
bag agf|g/f/ed ^cde|fef ded|cAF G2:|

